logo/cockpit.svg

<?xml version="1.0" encoding="UTF-8" standalone="no"?>
<svg width="256px" height="256px" viewBox="0 0 256 256" version="1.1" xmlns="http://www.w3.org/2000/svg" xmlns:xlink="http://www.w3.org/1999/xlink" preserveAspectRatio="xMidYMid">
	<g>
		<path d="M256,128 C256,198.692 198.692,256 128,256 C57.308,256 0,198.692 0,128 C0,57.308 57.308,0 128,0 C198.692,0 256,57.308 256,128" fill="#000000"></path>
		<path d="M86.8123,61.6718 L111.2843,86.1438 L74.3753,123.0518 C64.7473,132.6808 74.1083,142.0408 83.7363,132.4128 L138.8313,77.3178 C174.6703,41.4788 231.5043,98.3128 195.6653,134.1518 L179.2173,150.5998 L202.4853,173.8678 L174.6703,201.6828 L129.7383,156.7508 L171.1933,115.2958 C179.0383,107.4508 167.9393,96.3518 160.0943,104.1968 L102.0573,162.2338 C65.4163,194.0608 14.0653,143.2448 45.0893,105.2668 L86.8123,61.6718 Z" fill="#FFFFFF"></path>
	</g>
</svg>

<svg viewBox="0 0 256 256" xmlns="http://www.w3.org/2000/svg"><path d="M256 128c0 70.69-57.31 128-128 128C57.3 256 0 198.69 0 128 0 57.3 57.308 0 128 0c70.69 0 128 57.308 128 128"/><path fill="#FFF" d="M86.81 61.67l24.47 24.47 -36.91 36.9c-9.63 9.62-.27 18.98 9.36 9.36L138.82 77.3c35.83-35.84 92.67 20.99 56.83 56.834l-16.45 16.44 23.26 23.26 -27.82 27.81 -44.94-44.94 41.45-41.46c7.84-7.85-3.26-18.95-11.1-11.1l-58.04 58.03c-36.65 31.82-88-18.99-56.97-56.97L86.76 61.61Z"/></svg>
